X:1
T:James Gibb editions
T:Near the Cross was Mary weeping - Barnby
%%score [ ( 1 2 ) ( 3 4 ) ]
L:1/8
Q:1/4=72
M:4/4
K:D
V:1 treble nm="Midi_74"
V:2 treble 
V:3 bass nm="Midi_74"
V:4 bass 
V:1
"^Near the Cross (887. 887)""^Henry Mills\n(1786-1867)""^Near the Cross was Mary weeping""^Joseph Barnby\n(1838-96)" F2 F2 | %1
 A2 A2 G2 F2 | F2 E2 || G2 G2 | B2 B2 A2 G2 | G2 F2 || F2 F2 | C2 F2 A2 ^G2 | F4 ||[M:4/4] F2 F2 | %10
 c2 c2 d2 c2 | c2 B2 || D2 D2 | A2 A2 B2 A2 | A2 G2 || F2 E2 | A2 F2 E3 D | D4 || G4 F4 |] %19
V:2
 D2 D2 | F2 E2 D2 D2 | B,2 B,2 || E2 E2 | G2 G2 F2 E2 | E2 D2 || A,2 B,2 | C2 C2 F2 ^E2 | F4 || %9
[M:4/4] F2 F2 | E2 E2 F2 E2 | E2 D2 || D2 D2 | D2 D2 D2 D2 | D2 D2 || D2 D2 | D2 D2 C3 D | D4 || %18
 D4 D4 |] %19
V:3
 A,2 A,2 | D2 C2 B,2 A,2 | B,2 B,2 || B,2 B,2 | C2 C2 D2 E2 | A,2 A,2 || F,2 ^G,2 | %7
 A,2 A,2 C2 B,2 | A,4 || %9
[M:4/4]"^1 Near the cross was Mary weeping,\nThere her mournful station keeping,\nGazing on her dying Son,\nThere with speechless grief oppressed,\nAnguish-stricken, and distressed;\nThrough her soul the sword had gone.\n\n2 Who upon that Sufferer gazing,\nBowed in sorrow so amazing,\nWould not with His mother mourn?\n'Twas our sins brought Him from heaven;\nThese the cruel nails had driven;\nAll His griefs for us were borne." F,2 F,2 | %10
 ^A,2 A,2 F,2 A,2 | ^A,2 B,2 || D,2 D,2 | %13
 =C2 C2 D2"^3 When no eye its pity gave us,\nWhen there was no arm to save us,\nHe His love and power displayed;\nBy His stripes He wrought our healing;\nBy His death, our life revealing,\nHe for us the ransom paid.\n\n4 Jesus, may Thy love constrain us\nThat from sin we may refrain us,\nIn Thy griefs may deeply grieve.\nThee our best affections giving,\nTo Thy glory ever living,\nMay we in Thy glory live." C2 | %14
 =C2 B,2 || A,2 G,2 | F,2 A,2 G,3 F, | F,4 || B,4 A,4 |] %19
V:4
 D,2 D,2 | D,2 D,2 D,2 D,2 | G,2 G,2 || E,2 E,2 | A,,2 A,,2 B,,2 C,2 | D,2 D,2 || D,2 D,2 | %7
 C,2 C,2 C,2 C,2 | F,4 ||[M:4/4] F,2 F,2 | F,2 F,2 F,2 F,2 | B,,2 B,,2 || D,2 D,2 | %13
 F,2 F,2 D,2 F,2 | G,2 G,,2 || A,,2 B,,2 | A,,2 A,,2 A,,3 D, | D,4 || G,,4 D,4 |] %19

